src/lib/packages/icons/src/assets/line/percent-square.svg

<svg xmlns="http://www.w3.org/2000/svg" width="24" height="24" fill="none"><path fill="currentColor" d="M8 16.75a.75.75 0 0 1-.53-1.281l8-8a.75.75 0 1 1 1.061 1.061l-8 8a.748.748 0 0 1-.531.22Zm8.75-2c0-1.103-.897-2-2-2s-2 .897-2 2 .897 2 2 2 2-.897 2-2Zm-1.5 0a.5.5 0 1 1-1 0 .5.5 0 0 1 1 0Zm-4-5.5c0-1.103-.897-2-2-2s-2 .897-2 2 .897 2 2 2 2-.897 2-2Zm-1.5 0a.5.5 0 1 1-1 0 .5.5 0 0 1 1 0Zm12 8.375V6.375c0-2.66-1.465-4.125-4.125-4.125H6.375c-2.66 0-4.125 1.465-4.125 4.125v11.25c0 2.66 1.465 4.125 4.125 4.125h11.25c2.66 0 4.125-1.465 4.125-4.125ZM17.625 3.75c1.84 0 2.625.785 2.625 2.625v11.25c0 1.84-.785 2.625-2.625 2.625H6.375c-1.84 0-2.625-.785-2.625-2.625V6.375c0-1.84.785-2.625 2.625-2.625h11.25Z"/></svg>

<svg width="24" height="24" viewBox="0 0 24 24" fill="none" xmlns="http://www.w3.org/2000/svg">
<path d="M8 16.75C7.808 16.75 7.61597 16.677 7.46997 16.53C7.17697 16.237 7.17697 15.762 7.46997 15.469L15.47 7.46899C15.763 7.17599 16.238 7.17599 16.531 7.46899C16.824 7.76199 16.824 8.23703 16.531 8.53003L8.53101 16.53C8.38401 16.677 8.192 16.75 8 16.75ZM16.75 14.75C16.75 13.647 15.853 12.75 14.75 12.75C13.647 12.75 12.75 13.647 12.75 14.75C12.75 15.853 13.647 16.75 14.75 16.75C15.853 16.75 16.75 15.853 16.75 14.75ZM15.25 14.75C15.25 15.026 15.026 15.25 14.75 15.25C14.474 15.25 14.25 15.026 14.25 14.75C14.25 14.474 14.474 14.25 14.75 14.25C15.026 14.25 15.25 14.474 15.25 14.75ZM11.25 9.25C11.25 8.147 10.353 7.25 9.25 7.25C8.147 7.25 7.25 8.147 7.25 9.25C7.25 10.353 8.147 11.25 9.25 11.25C10.353 11.25 11.25 10.353 11.25 9.25ZM9.75 9.25C9.75 9.526 9.526 9.75 9.25 9.75C8.974 9.75 8.75 9.526 8.75 9.25C8.75 8.974 8.974 8.75 9.25 8.75C9.526 8.75 9.75 8.974 9.75 9.25ZM21.75 17.625V6.375C21.75 3.715 20.285 2.25 17.625 2.25H6.375C3.715 2.25 2.25 3.715 2.25 6.375V17.625C2.25 20.285 3.715 21.75 6.375 21.75H17.625C20.285 21.75 21.75 20.285 21.75 17.625ZM17.625 3.75C19.465 3.75 20.25 4.535 20.25 6.375V17.625C20.25 19.465 19.465 20.25 17.625 20.25H6.375C4.535 20.25 3.75 19.465 3.75 17.625V6.375C3.75 4.535 4.535 3.75 6.375 3.75H17.625Z" fill="currentColor"/>
</svg>
